X: 1852
T: Süzdükçe Güzel Gözlerini
C: Cevdet Çağla
O: Turkey
F: http://compmusic.upf.edu/node/140
N: saba--sarki--curcuna--suzdukce_guzel--cevdet_cagla
N: makam= saba
N: form= sarki
N: usul= curcuna = 10/8
M: 10/8
L: 1/16
K: C _2/4B _3/4d  
Q: 1/4=156
%%MIDI tuningsystem comma53
G6f4ed cBc4d2  | e4 d2d2 c2c2 d2c4(3BAB  | \
w:  Süz *  dük  |  çe  *  gü *  zel   | 
B4 d2c4c2 B2A4z2  | 
w:  göz *  le ri *  ni   | 
e6f4e2 d2c2 d2e2  | d2e2 f2e2 d2c2 d2c4(3BAB  | \
w:  kal bi mi  *  yak  |  tın   | 
e4 d2d2 c2c2 B2d2 {e}d2c2  | 
w:  kal *  bi *  mi  *  yak  | 
c8-c2c4c2 B2A2  | .G4 z4 z2.A4z4z2  | \
w:  tın   *  SAZ  |   | 
.B4 z4 z2.c4z4z2  | c2d2 f3e d2c2 B2A4z2  | 
w:   |   | 
G6f4ed cBc4d2  | e4 d2d2 c2c2 d2c4(3BAB  | \
w:  Süz *  dük  |  çe  *  gü *  zel   | 
B4 d2c4c2 B2A4z2  | 
w:  göz *  le ri *  ni   | 
e6f4e2 d2c2 d2e2  | d2e2 f2e2 d2c2 d2c4(3BAB  | \
w:  kal bi mi  *  yak  |  tın   | 
e4 d2d2 c2c2 B2d2 {e}d2c2  | 
w:  kal *  bi *  mi  *  yak  | 
c8-c2c4c2 B2A2  | .G4 z4 z2.A4z4z2  | \
w:  tın   *  SAZ  |   | 
.B4 z4 z2.c4z4z2  | c2d2 f3e d2c2 B2c4z2  | 
w:   |   | 
c8-c2e2 f2g4(3fef  | g4 _7/8a2g2 e2f2 d2c4z2  | \
w:  Bil mem   |  ki  *  na *  sıl   | 
f4 g2g4g4_7/8a3gf2  | 
w:  bir  *  lâh za da   | 
f4 g2_7/8a2 {b}a2{b}a2 g2g2 f2e2  | \
w:  gön *  lü *  *  *  me  *  ak  | 
f2g2 _7/8a2f2 e2d2 e2f2 e2d2  | c2d2 c4 BAB4z4z2  | 
w:  tın    |   | 
c4 B4 A2e4d4c2  | c4 d2d2 c2c2 BAB4z2  | \
w:  Bil *  *  mem   |  ki  *  na *  sıl   | 
f4 _7/8a2g2 f2e2 d2c4(3BAB  | 
w:  bir  *  lâh *  za *  da   | 
e4 d2c2 B2A2 B2c2 {d}c2B2  | B6B4c4d4z2  | \
w:  gön *  lü *  me  *  ak  |  tın  *  ah   | 
e4 {f}d2d2 c2B2 c2{d}c2 B2BA  | 
w:  gön *  *  lü *  me  *  *  ak  | 
A14A4z2  | .G4 z4 z2.A4z4z2  | .B4 z4 z2.c4z4z2  | \
w:  tın    |  SAZ  |   | 
=d4 f2e2 d2c2 d2e4z2  | 
w:   | 
=d6e4e8d2  | =d2e2 f2e2 d2c2 B2c4z2  | \
w:  Sar *  dın   |  me *  *  le *  ğim   | 
B2c2 =d2e2 d2c2 B2A4B2  | 
w:  rû *  *  hu *  mu  *  bi  | 
G6c4B2 c2=d4c2  | c8 =B2A2 ^G2A4z2  | \
w:  ça re  bı *  rak  |  tın  *  bi  | 
=d4 e2e4e2 d2g2 ^3/4f2g2  | e4 f2e2 =d2c2 d2e4z2  | 
w:  ça *  re  bı *  rak  |  tın    | 
=d6e4e8d2  | =d2e2 f2e2 d2c2 B2c4z2  | \
w:  Sar *  dın   |  me *  *  le *  ğim   | 
B2c2 =d2e2 d2c2 B2A4B2  | 
w:  rû *  *  hu *  mu  *  bi  | 
c4 d2e4f4e2 d2c2  | g8 (3fef_7/8a2 g2f2 e2d2  | \
w:  ça *  re  bı rak  |  tın   *  *  *  bi  | 
c4 d2d2 c2c2 B2A4B2  | 
w:  ça *  re  *  bı *  rak  | 
c14c2 B2A2  | c8-c2e2 f2g4(3fef  | g4 _7/8a2g2 e2f2 d2c4z2  | \
w:  tın   SAZ  |  Bil mem   |  ki  *  na *  sıl   | 
f4 g2g4g4_7/8a3gf2  | 
w:  bir  *  lâh za da   | 
f4 g2_7/8a2 {b}a2{b}a2 g2g2 f2e2  | \
w:  gön *  lü *  *  *  me  *  ak  | 
f2g2 _7/8a2f2 e2d2 e2f2 e2d2  | c2d2 c4 BAB4z4z2  | 
w:  tın    |   | 
c4 B4 A2e4d4c2  | c4 d2d2 c2c2 BAB4z2  | \
w:  Bil *  *  mem   |  ki  *  na *  sıl   | 
f4 _7/8a2g2 f2e2 d2c4(3BAB  | 
w:  bir  *  lâh *  za *  da   | 
e4 d2c2 B2A2 B2c2 {d}c2B2  | B6B4c4d4z2  | \
w:  gön *  lü *  me  *  ak  |  tın  *  ah   | 
e4 {f}d2d2 c2B2 c2{d}c2 B2BA  | 
w:  gön *  *  lü *  me  *  *  ak  | 
A14A4z2  | |


